X: 24537
T: Luggin' The Box
R: reel
M: 4/4
K: Gmajor
|:G2 GF GAGE|DEGA BGGD|DA A2 BA A2|ABAG EcBA|
G2 GF GAGE|DEGA BGGD|E2 GE DEGB|1 AGAB G2 DE:|2 AGAB G2 BA||
|:G2 BA GAGE|DEGA BGcB|A2 cB ABAG|EGAB cABA|
G2 BA GAGE|DEGA BGGD|E2 GE DEGB|1 : AGAB G2 BA:|2 AGAB G4||

